flaticon/religion/rosary.svg

<svg xmlns="http://www.w3.org/2000/svg" width="32" height="32" viewBox="0 0 24 24">
    <path d="M13.609375 19.109375L14.976562 18.332031C15.167969 18.222656 15.238281 17.976562 15.128906 17.785156L14.152344 16.066406C14.097656 15.972656 14.011719 15.90625 13.90625 15.878906 13.804688 15.847656 13.695312 15.863281 13.601562 15.917969L12.253906 16.691406 11.472656 15.316406C11.363281 15.121094 11.121094 15.054688 10.925781 15.164062L9.1875 16.140625C9.09375 16.191406 9.027344 16.277344 9 16.382812 8.96875 16.484375 8.984375 16.59375 9.035156 16.6875L9.816406 18.066406 8.449219 18.84375C8.253906 18.953125 8.1875 19.195312 8.296875 19.390625L9.273438 21.109375C9.324219 21.199219 9.414062 21.269531 9.515625 21.296875 9.617188 21.324219 9.726562 21.3125 9.820312 21.257812L11.1875 20.484375 12.910156 23.515625C13.035156 23.738281 13.242188 23.898438 13.488281 23.964844 13.574219 23.988281 13.660156 24 13.746094 24 13.910156 24 14.070312 23.957031 14.21875 23.875L14.980469 23.441406C15.203125 23.316406 15.363281 23.109375 15.433594 22.859375 15.5 22.613281 15.46875 22.355469 15.339844 22.132812zM14.65625 22.648438C14.652344 22.671875 14.632812 22.714844 14.585938 22.742188L13.820312 23.175781C13.773438 23.203125 13.726562 23.195312 13.703125 23.191406 13.679688 23.183594 13.636719 23.164062 13.609375 23.117188L11.691406 19.734375C11.636719 19.644531 11.550781 19.574219 11.449219 19.546875 11.414062 19.535156 11.375 19.53125 11.339844 19.53125 11.273438 19.53125 11.203125 19.550781 11.140625 19.585938L9.773438 20.359375 9.195312 19.34375 10.5625 18.566406C10.757812 18.457031 10.824219 18.210938 10.714844 18.015625L9.933594 16.640625 10.972656 16.058594 11.753906 17.4375C11.804688 17.53125 11.894531 17.597656 11.996094 17.628906 12.101562 17.65625 12.210938 17.640625 12.304688 17.589844L13.652344 16.816406 14.230469 17.832031 12.859375 18.609375C12.769531 18.660156 12.699219 18.75 12.671875 18.851562 12.644531 18.957031 12.65625 19.066406 12.710938 19.15625L14.644531 22.53125C14.671875 22.578125 14.664062 22.625 14.65625 22.648438zM10.191406 3.21875C11.078125 3.21875 11.800781 2.496094 11.800781 1.609375 11.800781.722656 11.078125 0 10.191406 0 9.304688 0 8.582031.722656 8.582031 1.609375 8.582031 2.496094 9.304688 3.21875 10.191406 3.21875zM10.191406.804688C10.632812.804688 10.996094 1.164062 10.996094 1.609375 10.996094 2.050781 10.632812 2.414062 10.191406 2.414062 9.746094 2.414062 9.386719 2.050781 9.386719 1.609375 9.386719 1.164062 9.746094.804688 10.191406.804688zM13.808594 3.621094C14.695312 3.621094 15.417969 2.898438 15.417969 2.011719 15.417969 1.125 14.695312.402344 13.808594.402344 12.921875.402344 12.199219 1.125 12.199219 2.011719 12.199219 2.898438 12.921875 3.621094 13.808594 3.621094zM13.808594 1.207031C14.253906 1.207031 14.613281 1.566406 14.613281 2.011719 14.613281 2.453125 14.253906 2.816406 13.808594 2.816406 13.367188 2.816406 13.003906 2.453125 13.003906 2.011719 13.003906 1.566406 13.367188 1.207031 13.808594 1.207031zM17.429688 4.425781C18.316406 4.425781 19.039062 3.703125 19.039062 2.816406 19.039062 1.929688 18.316406 1.207031 17.429688 1.207031 16.542969 1.207031 15.820312 1.929688 15.820312 2.816406 15.820312 3.703125 16.542969 4.425781 17.429688 4.425781zM17.429688 2.011719C17.875 2.011719 18.234375 2.371094 18.234375 2.816406 18.234375 3.257812 17.875 3.621094 17.429688 3.621094 16.984375 3.621094 16.625 3.257812 16.625 2.816406 16.625 2.371094 16.984375 2.011719 17.429688 2.011719zM19.441406 4.023438C18.554688 4.023438 17.832031 4.742188 17.832031 5.628906 17.832031 6.519531 18.554688 7.238281 19.441406 7.238281 20.328125 7.238281 21.050781 6.519531 21.050781 5.628906 21.050781 4.742188 20.328125 4.023438 19.441406 4.023438zM19.441406 6.433594C18.996094 6.433594 18.636719 6.074219 18.636719 5.628906 18.636719 5.1875 18.996094 4.828125 19.441406 4.828125 19.882812 4.828125 20.246094 5.1875 20.246094 5.628906 20.246094 6.074219 19.882812 6.433594 19.441406 6.433594zM18.234375 7.238281C17.347656 7.238281 16.625 7.960938 16.625 8.847656 16.625 9.734375 17.347656 10.457031 18.234375 10.457031 19.121094 10.457031 19.84375 9.734375 19.84375 8.847656 19.84375 7.960938 19.121094 7.238281 18.234375 7.238281zM18.234375 9.652344C17.789062 9.652344 17.429688 9.292969 17.429688 8.847656 17.429688 8.40625 17.789062 8.042969 18.234375 8.042969 18.675781 8.042969 19.039062 8.40625 19.039062 8.847656 19.039062 9.292969 18.675781 9.652344 18.234375 9.652344zM15.417969 9.652344C14.53125 9.652344 13.808594 10.375 13.808594 11.261719 13.808594 12.148438 14.53125 12.871094 15.417969 12.871094 16.304688 12.871094 17.027344 12.148438 17.027344 11.261719 17.027344 10.375 16.304688 9.652344 15.417969 9.652344zM15.417969 12.066406C14.976562 12.066406 14.613281 11.703125 14.613281 11.261719 14.613281 10.816406 14.976562 10.457031 15.417969 10.457031 15.863281 10.457031 16.222656 10.816406 16.222656 11.261719 16.222656 11.703125 15.863281 12.066406 15.417969 12.066406zM10.996094 13.675781C10.996094 14.5625 11.714844 15.28125 12.601562 15.28125 13.492188 15.28125 14.210938 14.5625 14.210938 13.675781 14.210938 12.785156 13.492188 12.066406 12.601562 12.066406 11.714844 12.066406 10.996094 12.785156 10.996094 13.675781zM13.40625 13.675781C13.40625 14.117188 13.046875 14.480469 12.601562 14.480469 12.160156 14.480469 11.800781 14.117188 11.800781 13.675781 11.800781 13.230469 12.160156 12.871094 12.601562 12.871094 13.046875 12.871094 13.40625 13.230469 13.40625 13.675781zM6.972656 4.425781C7.859375 4.425781 8.582031 3.703125 8.582031 2.816406 8.582031 1.929688 7.859375 1.207031 6.972656 1.207031 6.085938 1.207031 5.363281 1.929688 5.363281 2.816406 5.363281 3.703125 6.085938 4.425781 6.972656 4.425781zM6.972656 2.011719C7.417969 2.011719 7.777344 2.371094 7.777344 2.816406 7.777344 3.257812 7.417969 3.621094 6.972656 3.621094 6.527344 3.621094 6.167969 3.257812 6.167969 2.816406 6.167969 2.371094 6.527344 2.011719 6.972656 2.011719zM4.960938 7.238281C5.847656 7.238281 6.570312 6.519531 6.570312 5.628906 6.570312 4.742188 5.847656 4.023438 4.960938 4.023438 4.074219 4.023438 3.351562 4.742188 3.351562 5.628906 3.351562 6.519531 4.074219 7.238281 4.960938 7.238281zM4.960938 4.828125C5.40625 4.828125 5.765625 5.1875 5.765625 5.628906 5.765625 6.074219 5.40625 6.433594 4.960938 6.433594 4.519531 6.433594 4.15625 6.074219 4.15625 5.628906 4.15625 5.1875 4.519531 4.828125 4.960938 4.828125zM6.167969 9.25C6.167969 8.363281 5.445312 7.640625 4.558594 7.640625 3.671875 7.640625 2.949219 8.363281 2.949219 9.25 2.949219 10.136719 3.671875 10.859375 4.558594 10.859375 5.445312 10.859375 6.167969 10.136719 6.167969 9.25zM3.753906 9.25C3.753906 8.808594 4.117188 8.445312 4.558594 8.445312 5.003906 8.445312 5.363281 8.808594 5.363281 9.25 5.363281 9.695312 5.003906 10.054688 4.558594 10.054688 4.117188 10.054688 3.753906 9.695312 3.753906 9.25zM6.972656 12.871094C6.972656 11.984375 6.25 11.261719 5.363281 11.261719 4.476562 11.261719 3.753906 11.984375 3.753906 12.871094 3.753906 13.757812 4.476562 14.480469 5.363281 14.480469 6.25 14.480469 6.972656 13.757812 6.972656 12.871094zM4.558594 12.871094C4.558594 12.425781 4.921875 12.066406 5.363281 12.066406 5.808594 12.066406 6.167969 12.425781 6.167969 12.871094 6.167969 13.3125 5.808594 13.675781 5.363281 13.675781 4.921875 13.675781 4.558594 13.3125 4.558594 12.871094zM6.972656 14.480469C6.085938 14.480469 5.363281 15.199219 5.363281 16.085938 5.363281 16.976562 6.085938 17.695312 6.972656 17.695312 7.859375 17.695312 8.582031 16.976562 8.582031 16.085938 8.582031 15.199219 7.859375 14.480469 6.972656 14.480469zM6.972656 16.890625C6.527344 16.890625 6.167969 16.53125 6.167969 16.085938 6.167969 15.644531 6.527344 15.28125 6.972656 15.28125 7.417969 15.28125 7.777344 15.644531 7.777344 16.085938 7.777344 16.53125 7.417969 16.890625 6.972656 16.890625zM6.972656 16.890625"/>
</svg>

<svg xmlns="http://www.w3.org/2000/svg" width="32" height="32" viewBox="0 0 24 24">
    <path d="M13.61 19.11l1.367-.778a.403.403 0 0 0 .152-.547l-.977-1.719a.397.397 0 0 0-.246-.187.38.38 0 0 0-.304.039l-1.348.773-.781-1.375a.399.399 0 0 0-.547-.152l-1.739.977a.38.38 0 0 0-.187.242.396.396 0 0 0 .035.305l.781 1.378-1.367.778a.399.399 0 0 0-.152.547l.976 1.718a.404.404 0 0 0 .547.149l1.367-.774 1.723 3.032a.94.94 0 0 0 .578.449.972.972 0 0 0 .73-.09l.762-.434a.958.958 0 0 0 .36-1.308zm1.046 3.538a.144.144 0 0 1-.07.094l-.766.434c-.047.027-.093.02-.117.015a.17.17 0 0 1-.094-.074l-1.918-3.383a.415.415 0 0 0-.351-.203.414.414 0 0 0-.2.055l-1.367.773-.578-1.015 1.367-.778a.403.403 0 0 0 .153-.55l-.781-1.375 1.039-.582.78 1.378c.052.094.142.16.243.192a.423.423 0 0 0 .309-.04l1.347-.773.578 1.016-1.37.777a.404.404 0 0 0-.15.547l1.935 3.375c.027.047.02.094.011.117zm0 0M10.191 3.219c.887 0 1.61-.723 1.61-1.61C11.8.723 11.078 0 10.19 0c-.886 0-1.609.723-1.609 1.61 0 .886.723 1.609 1.61 1.609zm0-2.414c.442 0 .805.36.805.804a.809.809 0 0 1-.805.805.804.804 0 1 1 0-1.61zm0 0M13.809 3.621c.886 0 1.609-.723 1.609-1.61 0-.886-.723-1.609-1.61-1.609-.886 0-1.609.723-1.609 1.61 0 .886.723 1.61 1.61 1.61zm0-2.414a.804.804 0 1 1 .002 1.607.804.804 0 0 1-.002-1.607zm0 0M17.43 4.426c.886 0 1.61-.723 1.61-1.61 0-.886-.724-1.609-1.61-1.609-.887 0-1.61.723-1.61 1.61 0 .886.723 1.609 1.61 1.609zm0-2.414a.804.804 0 1 1 0 1.61.804.804 0 1 1 0-1.61zm0 0M19.441 4.023c-.886 0-1.609.72-1.609 1.606a1.61 1.61 0 0 0 3.219 0c0-.887-.723-1.606-1.61-1.606zm0 2.41a.804.804 0 1 1-.002-1.606.804.804 0 0 1 .002 1.607zm0 0"/>
    <path d="M18.234 7.238c-.886 0-1.609.723-1.609 1.61 0 .886.723 1.609 1.61 1.609.886 0 1.609-.723 1.609-1.61 0-.886-.723-1.609-1.61-1.609zm0 2.414a.804.804 0 1 1-.002-1.607.804.804 0 0 1 .002 1.607zm0 0M15.418 9.652c-.887 0-1.61.723-1.61 1.61 0 .886.723 1.61 1.61 1.61.887 0 1.61-.724 1.61-1.61 0-.887-.723-1.61-1.61-1.61zm0 2.414a.809.809 0 0 1-.805-.804c0-.446.364-.805.805-.805a.804.804 0 1 1 0 1.61zm0 0M10.996 13.676c0 .886.719 1.605 1.606 1.605a1.606 1.606 0 1 0 0-3.215c-.887 0-1.606.72-1.606 1.61zm2.41 0c0 .441-.36.804-.804.804a.805.805 0 0 1 0-1.609c.445 0 .804.36.804.805zm0 0M6.973 4.426c.886 0 1.609-.723 1.609-1.61 0-.886-.723-1.609-1.61-1.609-.886 0-1.609.723-1.609 1.61 0 .886.723 1.609 1.61 1.609zm0-2.414a.804.804 0 1 1 0 1.61.804.804 0 1 1 0-1.61zm0 0"/>
    <path d="M4.96 7.238a1.61 1.61 0 0 0 1.61-1.61 1.609 1.609 0 0 0-3.218 0c0 .892.722 1.61 1.609 1.61zm0-2.41a.803.803 0 1 1 0 1.606.806.806 0 0 1-.804-.805c0-.441.364-.8.805-.8zm0 0M6.168 9.25c0-.887-.723-1.61-1.61-1.61-.886 0-1.609.723-1.609 1.61 0 .887.723 1.61 1.61 1.61.886 0 1.609-.723 1.609-1.61zm-2.414 0c0-.441.363-.805.805-.805.445 0 .804.364.804.805a.804.804 0 1 1-1.61 0zm0 0M6.973 12.871c0-.887-.723-1.61-1.61-1.61-.886 0-1.61.723-1.61 1.61 0 .887.724 1.61 1.61 1.61.887 0 1.61-.723 1.61-1.61zm-2.414 0a.804.804 0 1 1 1.612-.002.804.804 0 0 1-1.612.002zm0 0M6.973 14.48c-.887 0-1.61.72-1.61 1.606a1.61 1.61 0 0 0 3.219 0c0-.887-.723-1.606-1.61-1.606zm0 2.41a.804.804 0 1 1 0-1.609c.445 0 .804.364.804.805 0 .445-.359.805-.804.805zm0 0"/>
</svg>
